X:1
T:Jesus, Blessèd Jesus
T:Charles Hutchinson Gabriel, 1906
T:Jesus, Blessèd Jesus
T:Public Domain
T:Public Domain
C:Charles Hutchinson Gabriel, 1906
Z:Public Domain
%%score 1 ( 2 3 )
L:1/8
M:6/8
K:G
V:1 treble 
V:2 bass 
V:3 bass 
V:1
 [B,D] | [DB]>[^C^A][DB] [B,G][B,=A][DB] | [Ec]2 [_Ec] [DB]3 | [DB]3 [B,G] z [CA]/[DB]/ | %4
w: 1.~There’s|One Who can com- fort when|all else fails,|Je- sus, bless- èd|
w: 2.~He|hear- eth the cry of the|soul dis- tressed,|Je- sus, bless- èd|
w: 3.~He|nev- er for- sakes in the|dark- est hour,|Je- sus, bless- èd|
w: 4.~What|joy it will be when we|see His face,|Je- sus, bless- èd|
 [CA]3 [B,G]2 [B,D] | [DB]>[^C^A][DB] [B,G][=C=A][DB] | [Ec]2 [_Ec] [DB]3 | %7
w: Je- sus; A|Sav- ior Who saves tho’ the|foe as- sails,|
w: Je- sus; He|heal- eth the wound- ed, He|giv- eth rest,|
w: Je- sus; His|arm is a- round us with|keep- ing pow’r,|
w: Je- sus; For-|ev- er to sing of His|love and grace,|
 [DB]3 [B,G] z [CA]/[DB]/ | [CA]3 [B,G]2 z | [Gd]2 [Gd] [GB]>[DA][DG] | [GB]2 [GB] [DG]3 | %11
w: Je- sus, bless- èd|Je- sus:|Once He tra- veled the|way we go,|
w: Je- sus, bless- èd|Je- sus:|When from loved ones we’re|called to part,|
w: Je- sus, bless- èd|Je- sus:|When we en- ter the|Sha- dow- land,|
w: Je- sus, bless- èd|Je- sus:|There at home on that|shin- ing shore,|
 [Gd]2 [Gd] [GB]>[DA][DG] | [GA]2 [GB] [FA]3 | [GB]2 [GB] [DG]>[DA][GB] | [Gd]2 [Ge] [Gd]2 [Ec] | %15
w: Felt the pangs of de-|ceit and woe;|Who more per- fect- ly|then can know, Than|
w: When the tears in our|ang- uish start,|None can com- fort the|break- ing heart, Like|
w: When at Jor- dan we|trem- bling stand,|He will meet us with|out- stretched hand, This|
w: With the loved ones gone|on be- fore,|We will praise Him for-|ev- er- more, Our|
 [DB]3 [B,G] z [CA]/[DB]/ | [CA]3 [B,G]2 |] %17
w: Je- sus, bless- èd|Je- sus?|
w: Je- sus, bless- èd|Je- sus.|
w: Je- sus, bless- èd|Je- sus.|
w: Je- sus, bless- èd|Je- sus.|
V:2
 [G,,G,] | [G,,G,]>[G,,G,][G,,G,] [G,,D,][G,,D,][G,,G,] | [G,,G,]2 [G,,G,] [G,,G,]3 | %3
 [D,G,]3 D, z [D,F,]/[D,F,]/ | (F,2 D,) [G,,D,]2 [G,,G,] | %5
 [G,,G,]>[G,,G,][G,,G,] [G,,D,][G,,D,][G,,G,] | [G,,G,]2 [G,,G,] [G,,G,]3 | %7
 [D,G,]3 D, z [D,F,]/[D,F,]/ | (F,2 D,) [G,,D,]2 z | [G,B,]2 [G,B,] [G,D]>[G,C][G,B,] | %10
 [G,D]2 [G,D] [G,B,]3 | [G,B,]2 [G,B,] [G,D]>[G,C][G,B,] | [E,^C]2 [A,,C] [D,D]3 | %13
 [G,D]2 [G,D] G,>[G,C][G,D] | [G,B,]2 [G,C] [G,B,]2 [C,G,] | [D,G,]3 D, z [D,F,]/[D,F,]/ | %16
 (F,2 D,) [G,,D,]2 |] %17
V:3
 x | x6 | x6 | x3 D, x2 | D,3 x3 | x6 | x6 | x3 D, x2 | D,3 x3 | x6 | x6 | x6 | x6 | x6 | x6 | %15
 x3 D, x2 | D,3 x2 |] %17

